packages/core/src/svgs/tokens/branded/MTS.svg

<svg width="24" height="24" viewBox="0 0 24 24" fill="none" xmlns="http://www.w3.org/2000/svg">
<path d="M13.5969 3.59811C14.4651 3.59575 15.3284 3.72798 16.156 3.99009C14.7897 6.47637 12.5106 8.90665 11.5083 9.8362C11.4598 9.88794 11.4327 9.95628 11.4327 10.0272C11.4326 10.0982 11.4594 10.1664 11.5077 10.2184C11.5561 10.2703 11.6223 10.3019 11.6932 10.3068C11.764 10.3118 11.8339 10.2896 11.889 10.245C12.9194 9.29302 15.288 6.77315 16.688 4.18608C17.1751 4.37648 17.6399 4.61167 18.0711 4.88606C14.6552 10.833 9.32435 14.3104 6.08773 15.7663C5.20726 14.0184 4.9675 12.017 5.41015 10.1106L7.79003 11.4825L7.14607 8.45307L9.44754 6.37558L7.54364 6.17398C8.3266 5.35837 9.26654 4.70968 10.3069 4.26699C11.3472 3.8243 12.4664 3.59678 13.5969 3.59811ZM18.5358 5.19964C15.0641 11.2194 9.67714 14.7528 6.35651 16.259C7.14406 17.592 8.28316 18.6828 9.64914 19.4117C11.4802 18.8238 14.6833 17.4294 17.0296 15.184C17.2927 14.9319 17.5448 14.6744 17.7856 14.4C17.6151 14.2027 17.5188 13.9522 17.5133 13.6916C17.5077 13.431 17.5932 13.1767 17.7551 12.9723C17.9169 12.7679 18.145 12.6264 18.3999 12.5722C18.655 12.518 18.9209 12.5544 19.1519 12.6753C20.0163 11.4317 20.7447 10.0987 21.3245 8.69946C20.7274 7.30286 19.7639 6.09363 18.5358 5.19964ZM21.6045 9.45546C21.0427 10.7174 20.362 11.923 19.5718 13.0561C19.7021 13.253 19.7668 13.4859 19.7567 13.7218C19.7466 13.9576 19.6624 14.1842 19.5158 14.3693C19.3692 14.5543 19.1679 14.6884 18.9406 14.7521C18.7134 14.816 18.4718 14.8064 18.2503 14.7247C17.9816 15.0216 17.7072 15.3127 17.4103 15.5927C15.2152 17.6927 12.309 19.0646 10.3771 19.7589C11.8561 20.3735 13.4799 20.5524 15.0573 20.2746C16.6347 19.9968 18.0997 19.2739 19.2797 18.191C20.4598 17.1081 21.3055 15.7104 21.7175 14.1626C22.1294 12.6148 22.0902 10.9816 21.6045 9.45546Z" fill="url(#paint0_linear_364_3345)"/>
<path d="M5.19744 4.36536L6.127 6.44844L8.39488 6.68923L6.69817 8.21235L7.17413 10.4466L5.19744 9.3043L3.22074 10.4466L3.69672 8.21235L2 6.68923L4.26789 6.44844L5.19744 4.36536Z" fill="url(#paint1_linear_364_3345)"/>
<defs>
<linearGradient id="paint0_linear_364_3345" x1="2.23794" y1="13.5152" x2="21.9737" y2="13.8878" gradientUnits="userSpaceOnUse">
<stop stop-color="#FFAF02"/>
<stop offset="1" stop-color="#FF5E1C"/>
</linearGradient>
<linearGradient id="paint1_linear_364_3345" x1="2.14559" y1="7.44549" x2="7.23013" y2="7.72549" gradientUnits="userSpaceOnUse">
<stop stop-color="#EF6A37"/>
<stop offset="1" stop-color="#F29725"/>
</linearGradient>
</defs>
</svg>

<svg xmlns="http://www.w3.org/2000/svg" width="24" height="24" fill="none" viewBox="0 0 24 24">
    <path fill="url(#MTS__a)" d="M13.597 3.598a8.4 8.4 0 0 1 2.559.392c-1.366 2.486-3.645 4.917-4.648 5.846a.28.28 0 0 0 .381.409c1.03-.952 3.399-3.472 4.799-6.059.487.19.952.426 1.383.7-3.416 5.947-8.747 9.424-11.983 10.88a8.37 8.37 0 0 1-.678-5.655l2.38 1.371-.644-3.029 2.302-2.077-1.904-.202a8.38 8.38 0 0 1 6.053-2.576M18.536 5.2c-3.472 6.02-8.859 9.553-12.18 11.059a8.44 8.44 0 0 0 3.293 3.153c1.831-.588 5.034-1.983 7.38-4.228.264-.252.516-.51.757-.784a1.12 1.12 0 0 1 1.366-1.725A21 21 0 0 0 21.324 8.7a8.4 8.4 0 0 0-2.788-3.5m3.069 4.255a22 22 0 0 1-2.033 3.601 1.12 1.12 0 0 1-1.322 1.669c-.268.297-.543.588-.84.868-2.195 2.1-5.101 3.472-7.033 4.166A8.4 8.4 0 0 0 21.605 9.455"/>
    <path fill="url(#MTS__b)" d="m5.197 4.365.93 2.083 2.268.241-1.697 1.523.476 2.235-1.977-1.143-1.976 1.143.476-2.235L2 6.69l2.268-.24z"/>
    <defs>
        <linearGradient id="MTS__a" x1="2.238" x2="21.974" y1="13.515" y2="13.888" gradientUnits="userSpaceOnUse">
            <stop stop-color="#FFAF02"/>
            <stop offset="1" stop-color="#FF5E1C"/>
        </linearGradient>
        <linearGradient id="MTS__b" x1="2.146" x2="7.23" y1="7.445" y2="7.725" gradientUnits="userSpaceOnUse">
            <stop stop-color="#EF6A37"/>
            <stop offset="1" stop-color="#F29725"/>
        </linearGradient>
    </defs>
</svg>
